X:126
T:GB/6a/126 On Christmas Night All Christians Sing
%%VWML:GB-6a-126-0
F:http://www.vwml.org/record/GB/6a/126
T:Version 2 of 2
C:Sung by Mrs Cranstone, Billingshurst, VI. 07
C:Transcribed by Simon Furey and Lewis Jones
L:1/4
M:6/4
I:linebreak $
K:Cmix
C | D2 C D E F | G2 G D2 C | D2 C D E F | G2 G D3 |$ G2 B A3 | G3 F E D | G2 G C2 C | D E F E2 D|
C4- C |]



